src/assets/images/icons/repeat.svg

<svg width="24" height="24" viewBox="0 0 24 24" fill="none" xmlns="http://www.w3.org/2000/svg">
<path d="M17 1L21 5M21 5L17 9M21 5H7C5.93913 5 4.92172 5.42143 4.17157 6.17157C3.42143 6.92172 3 7.93913 3 9V11M7 23L3 19M3 19L7 15M3 19H17C18.0609 19 19.0783 18.5786 19.8284 17.8284C20.5786 17.0783 21 16.0609 21 15V13" stroke="#181D27" stroke-width="2" stroke-linecap="round" stroke-linejoin="round"/>
</svg>

<svg xmlns="http://www.w3.org/2000/svg" fill="none" viewBox="0 0 24 24"><path stroke="#181D27" stroke-linecap="round" stroke-linejoin="round" stroke-width="2" d="m17 1 4 4m0 0-4 4m4-4H7a4 4 0 0 0-4 4v2m4 12-4-4m0 0 4-4m-4 4h14a4 4 0 0 0 4-4v-2"/></svg>
